X:1
T:Candler, LMD
T:Candler, LMD
T:Scottish traditional melody
T:Public Domain Courtesy of the Cyber Hymnal™
C:Scottish traditional melody
Z:Public Domain
Z:Courtesy of the Cyber Hymnal™
%%score ( 1 2 ) ( 3 4 )
L:1/8
Q:1/4=85
M:6/8
K:G
V:1 treble 
V:2 treble 
V:3 bass 
V:4 bass 
V:1
 D | [DG]2 [DG] [FA][EG][FA] | [GB][Ad][GB] [FA][EG][FA] | BA[EG] [EG][CE][A,D] | %4
 DE[EG] [FA]2 B/A/ | [DG]2 [DG] [FA][EG][FA] | [GB][Ad][GB] [FA][EG][EA] | %7
 [^DB][FA][EG] [EG][CE][CE] | [A,D][B,E][CF] !fermata![B,G]2 [GB]/[Ac]/ | [Bd]2 [ce] [Bd][GB]G | %10
 [Bd]2 [ce] [Bd][GB]G | [Ad][GB]G dBG | ed[DB] !fermata![DA]2 B/A/ | [DG]2 [DG] [FA][EG][FA] | %14
 [GB][Ad][GB] [FA][EG][EA] | [^DB][FA][EG] [EG][CE][CE] | [A,D][B,E][CF] !fermata![B,G]2 |] %17
V:2
 D | x6 | x6 | D2 x4 | B,2 x2 F x | x6 | x6 | x6 | x6 | x5 G | x5 G | x2 G F2 G | G2 x2 F x | x6 | %14
 x6 | x6 | x5 |] %17
V:3
 [D,D] | [G,B,]2 [G,B,] [D,D]2 [D,D] | D2 [G,D] [D,D]2 [D,D] | G,[F,A,][E,B,] CG,[D,F,] | %4
 G,2 [E,B,] [D,D]2 D/C/ | [G,B,]2 [G,B,] [D,D]2 [D,D] | D2 [G,D] [D,D]2 [C,F,] | %7
 [B,,F,][^D,B,][E,B,] CG,[A,,G,] | F,G,[D,A,] !fermata![G,,G,]2 [G,B,]/[A,C]/ | %9
 [B,D]2 [CE] [B,D][G,B,]G, | [B,D]2 [CE] [B,D][G,B,]G, | D2 [E,C] [D,D]2 [E,B,] | %12
 [C,C][B,,G,][G,,G,] !fermata![D,F,]2 D/C/ | [G,B,]2 [G,B,] [D,D]2 [D,D] | D2 [G,D] [D,D]2 [C,F,] | %15
 [B,,F,][^D,B,][E,B,] CG,[A,,G,] | F,G,[D,A,] !fermata![G,,G,]2 |] %17
V:4
 x | x6 | G,F, x4 | x3 C,2 x | G,2 x D, x2 | x6 | G,F, x4 | x3 C,2 x | D,2 x4 | x5 G, | x5 G, | %11
 F,G, x4 | x5 D, | x6 | G,F, x4 | x3 C,2 x | D,2 x3 |] %17

